packages/icons/svg/Fill/wifi-off.svg

<svg width="24" height="24" viewBox="0 0 24 24" fill="none" xmlns="http://www.w3.org/2000/svg">
<g id="Icon/Fill/wifi-off">
<path id="Mask" fill-rule="evenodd" clip-rule="evenodd" d="M12.4364 11.0225L10.5444 9.13049L8.08243 6.66749L6.53143 5.11749L4.70743 3.29349C4.31643 2.90249 3.68343 2.90249 3.29243 3.29349C2.90243 3.68349 2.90243 4.31649 3.29243 4.70749L4.66843 6.08349L6.12943 7.54349L8.36343 9.77749L9.90943 11.3235L12.6484 14.0625L15.4414 16.8555L19.2924 20.7075C19.4884 20.9025 19.7444 21.0005 19.9994 21.0005C20.2554 21.0005 20.5114 20.9025 20.7074 20.7075C21.0974 20.3165 21.0974 19.6835 20.7074 19.2935L12.4364 11.0225ZM11.9999 18C11.4469 18 10.9999 18.448 10.9999 19C10.9999 19.552 11.4469 20 11.9999 20C12.5529 20 12.9999 19.552 12.9999 19C12.9999 18.448 12.5529 18 11.9999 18ZM11.9995 4.00019C15.6475 4.00019 19.1005 5.39519 21.7245 7.92919C22.1215 8.31219 22.1325 8.94619 21.7495 9.34319C21.5535 9.54619 21.2915 9.64819 21.0305 9.64819C20.7805 9.64819 20.5295 9.55519 20.3355 9.36719C18.0855 7.19619 15.1255 6.00019 11.9995 6.00019C11.0365 6.00019 10.0915 6.12719 9.17553 6.34719L7.56053 4.73219C8.97653 4.26019 10.4685 4.00019 11.9995 4.00019ZM3.82413 6.65279C3.28513 7.04279 2.76213 7.45979 2.27513 7.92879C1.87813 8.31279 1.86713 8.94579 2.25013 9.34279C2.63413 9.74079 3.26913 9.75179 3.66413 9.36779C4.16013 8.88879 4.69613 8.46579 5.25613 8.08379L3.82413 6.65279ZM17.7551 13.4427C17.4931 13.4427 17.2311 13.3407 17.0351 13.1377C16.2431 12.3167 15.2581 11.7117 14.1861 11.3587L11.8371 9.00869C11.8622 9.00823 11.8873 9.00626 11.9124 9.00428C11.9415 9.00199 11.9707 8.99969 12.0001 8.99969C14.4281 8.99969 16.7881 10.0017 18.4741 11.7477C18.8571 12.1457 18.8471 12.7787 18.4491 13.1617C18.2561 13.3497 18.0051 13.4427 17.7551 13.4427ZM7.43153 10.2603C6.73753 10.6683 6.09053 11.1623 5.52553 11.7483C5.14253 12.1453 5.15353 12.7793 5.55053 13.1623C5.94653 13.5463 6.58053 13.5353 6.96453 13.1373C7.52653 12.5553 8.18853 12.0883 8.90553 11.7343L7.43153 10.2603ZM8.50223 16.8173C8.11923 16.4203 8.13023 15.7873 8.52723 15.4033C9.27923 14.6763 10.2262 14.2273 11.2442 14.0723L13.7612 16.5903C12.6192 15.7753 10.9412 15.8523 9.91623 16.8413C9.52023 17.2263 8.88623 17.2153 8.50223 16.8173Z" fill="#000000"/>
</g>
</svg>

<svg fill="none" height="24" viewBox="0 0 24 24" width="24" xmlns="http://www.w3.org/2000/svg"><path clip-rule="evenodd" d="m12.4365 11.0225-1.892-1.89201-2.462-2.463-1.551-1.55-1.824-1.824c-.391-.391-1.024-.391-1.415 0-.39.39-.39 1.023 0 1.414l1.376 1.376 1.461 1.46 2.234 2.234 1.546 1.54601 2.739 2.739 2.793 2.793 3.851 3.852c.196.195.452.293.707.293.256 0 .512-.098.708-.293.39-.391.39-1.024 0-1.414zm-.4365 6.9775c-.553 0-1 .448-1 1s.447 1 1 1 1-.448 1-1-.447-1-1-1zm-.0004-13.99987c3.648 0 7.101 1.395 9.725 3.929.397.383.408 1.017.025 1.414-.196.203-.458.305-.719.305-.25 0-.501-.093-.695-.281-2.25-2.171-5.21-3.367-8.336-3.367-.963 0-1.908.127-2.82403.347l-1.615-1.615c1.416-.472 2.90803-.732 4.43903-.732zm-8.17541 2.65273c-.539.39-1.062.807-1.549 1.276-.397.384-.408 1.017-.025 1.414.384.398 1.019.409 1.414.025.496-.479 1.032-.902 1.592-1.284zm13.93101 6.79004c-.262 0-.524-.102-.72-.305-.792-.821-1.777-1.426-2.849-1.779l-2.349-2.35004c.0251-.00047.0501-.00244.0753-.00442.029-.00229.0582-.00458.0877-.00458 2.428 0 4.788 1.00204 6.474 2.74804.383.398.373 1.031-.025 1.414-.193.188-.444.281-.694.281zm-10.32361-3.1826c-.694.408-1.341.902-1.906 1.488-.383.397-.372 1.031.025 1.414.396.384 1.03.373 1.414-.025.562-.582 1.224-1.049 1.941-1.403zm1.07066 6.5569c-.383-.397-.372-1.03.025-1.414.752-.727 1.69895-1.176 2.71705-1.331l2.517 2.518c-1.142-.815-2.8201-.738-3.84505.251-.396.385-1.03.374-1.414-.024z" fill="#6b7280" fill-rule="evenodd"/></svg>
